docs/.gitbook/assets/icon-important-01-16@light.svg

<svg width="32" height="32" viewBox="0 0 16 16" fill="none" xmlns="http://www.w3.org/2000/svg">
<rect x="0" y="0" width="16" height="16" fill="#fff"/>
<path fill-rule="evenodd" clip-rule="evenodd" d="M5.10035 2.79285C6.29497 0.402379 9.70493 0.402386 10.8995 2.79286L14.6546 10.3068C15.7319 12.4625 14.1654 15 11.755 15H4.24493C1.83449 15 0.268025 12.4625 1.34534 10.3067L5.10035 2.79285ZM9.55777 3.4634C8.91583 2.17887 7.08407 2.17887 6.44213 3.4634L2.68712 10.9773C2.10765 12.1368 2.9507 13.5 4.24493 13.5H11.755C13.0492 13.5 13.8922 12.1368 13.3128 10.9773L9.55777 3.4634ZM8 5C8.55228 5 9 5.44772 9 6V8C9 8.55228 8.55228 9 8 9C7.44772 9 7 8.55228 7 8V6C7 5.44772 7.44772 5 8 5ZM8 10C7.44772 10 7 10.4477 7 11C7 11.5523 7.44772 12 8 12C8.55228 12 9 11.5523 9 11C9 10.4477 8.55228 10 8 10Z" fill="#000"/>
</svg>

<svg xmlns="http://www.w3.org/2000/svg" width="32" height="32" fill="none" viewBox="0 0 16 16"><path fill="#fff" d="M0 0h16v16H0z"/><path fill="#000" fill-rule="evenodd" d="M5.1 2.793c1.195-2.39 4.605-2.39 5.8 0l3.755 7.514c1.077 2.156-.49 4.693-2.9 4.693h-7.51c-2.41 0-3.977-2.537-2.9-4.693zm4.458.67c-.642-1.284-2.474-1.284-3.116 0l-3.755 7.514A1.743 1.743 0 0 0 4.245 13.5h7.51a1.743 1.743 0 0 0 1.558-2.523zM8 5a1 1 0 0 1 1 1v2a1 1 0 0 1-2 0V6a1 1 0 0 1 1-1m0 5a1 1 0 1 0 0 2 1 1 0 0 0 0-2" clip-rule="evenodd"/></svg>
